X: 11772
Q: "Solemnly slow"
M: C
L: 1/16
K: D
{de}!p!f4 Te3d d3A {A}"_>"a4 | c3gTg3f e2c2c3e |\
{de}f4 e3d d2A2 {A}"_>"Ha4{gf} | "^Exp."e2b2a3^c d4- d2zA |\
{de}f4 Te3d d3A {A}a4 |
c3gTg3f e2c2c3e |\
!f!F3GA3G F3GAf3 | B3AG3F {F}E2AE {C}^C2B,A, |
!f!F3G{FA}A3G F3GA3a | b3ag3f {f}e3ad {d}^c2BA |\


